; generated by Slic3r 1.3.0 on 2020-01-20 at 12:18:03

; external perimeters extrusion width = 0.44mm (3.38mm^3/s)
; perimeters extrusion width = 0.48mm (7.54mm^3/s)
; infill extrusion width = 0.48mm (10.05mm^3/s)
; solid infill extrusion width = 0.48mm (2.51mm^3/s)
; top infill extrusion width = 0.48mm (1.88mm^3/s)

M107
M190 S60 ; set bed temperature and wait for it to be reached
M104 S225 ; set temperature
G28 ; home all axes
G1 Z5 F5000 ; lift nozzle

; Filament gcode

M109 S225 ; set temperature and wait for it to be reached
G21 ; set units to millimeters
G90 ; use absolute coordinates
M82 ; use absolute distances for extrusion
G92 E0
G1 Z0.350 F7800.000
G1 E-2.00000 F2400.00000
G92 E0
G1 X109.915 Y95.753 F7800.000
G1 E2.00000 F2400.00000
G1 F1800
G1 X111.668 Y94.274 E2.20854
G1 X113.820 Y93.481 E2.41708
G1 X115.000 Y93.375 E2.52479
G1 X135.000 Y93.375 E4.34339
G1 X137.259 Y93.772 E4.55193
G1 X139.247 Y94.915 E4.76047
G1 X140.726 Y96.668 E4.96901
G1 X141.519 Y98.820 E5.17755
G1 X141.625 Y100.000 E5.28526
G1 X141.625 Y120.000 E7.10386
G1 X141.228 Y122.259 E7.31240
G1 X140.085 Y124.247 E7.52094
G1 X138.332 Y125.726 E7.72948
G1 X136.180 Y126.519 E7.93803
G1 X135.000 Y126.625 E8.04573
G1 X115.000 Y126.625 E9.86433
G1 X112.741 Y126.228 E10.07287
G1 X110.753 Y125.085 E10.28141
G1 X109.274 Y123.332 E10.48995
G1 X108.481 Y121.180 E10.69850
G1 X108.375 Y120.000 E10.80620
G1 X108.375 Y100.000 E12.62480
G1 X108.772 Y97.741 E12.83334
G1 X109.886 Y95.805 E13.03642
G1 F6240
G1 X111.668 Y94.274 E12.17779
G1 F6240
G1 X113.820 Y93.481 E11.33980
G1 F6240
G1 X114.375 Y93.431 E11.13642
G1 E11.03642 F2400.00000
G92 E0
G1 X132.775 Y117.775 F7800.000
G1 E2.00000 F2400.00000
G1 F1800
G1 X117.225 Y117.775 E3.41402
G1 X117.225 Y102.225 E4.82803
G1 X132.775 Y102.225 E6.24205
G1 X132.775 Y117.715 E7.65061
G1 X133.400 Y118.400 F7800.000
G1 F1800
G1 X116.600 Y118.400 E9.17826
G1 X116.600 Y101.600 E10.70592
G1 X133.400 Y101.600 E12.23358
G1 X133.400 Y118.340 E13.75578
G1 X134.025 Y119.025 F7800.000
G1 F1800
G1 X115.975 Y119.025 E15.39708
G1 X115.975 Y100.975 E17.03838
G1 X134.025 Y100.975 E18.67968
G1 X134.025 Y118.965 E20.31552
G1 X134.650 Y119.650 F7800.000
G1 F1800
G1 X115.350 Y119.650 E22.07046
G1 X115.350 Y100.350 E23.82540
G1 X134.650 Y100.350 E25.58035
G1 X134.650 Y119.590 E27.32983
G1 X134.264 Y119.546 F7800.000
G1 F6240
G1 X129.450 Y119.606 E25.42983
G1 E25.32983 F2400.00000
G92 E0
G1 X124.350 Y109.350 F7800.000
G1 E2.00000 F2400.00000
G1 F1800
G1 X125.650 Y109.350 E2.12298
G1 X125.650 Y110.650 E2.24595
G1 X124.350 Y110.650 E2.36893
G1 X124.350 Y109.410 E2.48623
G1 X123.700 Y108.700 F7800.000
G1 F1800
G1 X126.300 Y108.700 E2.73218
G1 X126.300 Y111.300 E2.97812
G1 X123.700 Y111.300 E3.22407
G1 X123.700 Y108.760 E3.46435
G1 X123.050 Y108.050 F7800.000
G1 F1800
G1 X126.950 Y108.050 E3.83327
G1 X126.950 Y111.950 E4.20220
G1 X123.050 Y111.950 E4.57112
G1 X123.050 Y108.110 E4.93437
G1 X122.400 Y107.400 F7800.000
G1 F1800
G1 X127.600 Y107.400 E5.42627
G1 X127.600 Y112.600 E5.91817
G1 X122.400 Y112.600 E6.41007
G1 X122.400 Y107.460 E6.89629
G1 X121.750 Y106.750 F7800.000
G1 F1800
G1 X128.250 Y106.750 E7.51116
G1 X128.250 Y113.250 E8.12603
G1 X121.750 Y113.250 E8.74091
G1 X121.750 Y106.810 E9.35010
G1 X121.100 Y106.100 F7800.000
G1 F1800
G1 X128.900 Y106.100 E10.08795
G1 X128.900 Y113.900 E10.82580
G1 X121.100 Y113.900 E11.56365
G1 X121.100 Y106.160 E12.29582
G1 X120.450 Y105.450 F7800.000
G1 F1800
G1 X129.550 Y105.450 E13.15664
G1 X129.550 Y114.550 E14.01746
G1 X120.450 Y114.550 E14.87828
G1 X120.450 Y105.510 E15.73343
G1 X119.800 Y104.800 F7800.000
G1 F1800
G1 X130.200 Y104.800 E16.71723
G1 X130.200 Y115.200 E17.70102
G1 X119.800 Y115.200 E18.68482
G1 X119.800 Y104.860 E19.66294
G1 X119.150 Y104.150 F7800.000
G1 F1800
G1 X130.850 Y104.150 E20.76971
G1 X130.850 Y115.850 E21.87648
G1 X119.150 Y115.850 E22.98325
G1 X119.150 Y104.210 E24.08435
G1 X118.500 Y103.500 F7800.000
G1 F1800
G1 X131.500 Y103.500 E25.31409
G1 X131.500 Y116.500 E26.54384
G1 X118.500 Y116.500 E27.77358
G1 X118.500 Y103.560 E28.99765
G1 X117.850 Y102.850 F7800.000
G1 F1800
G1 X132.150 Y102.850 E30.35037
G1 X132.150 Y117.150 E31.70309
G1 X117.850 Y117.150 E33.05581
G1 X117.850 Y102.910 E34.40286
M104 S220 ; set temperature
M140 S55 ; set bed temperature
G1 Z0.650 F7800.000
G1 X133.545 Y118.545 F7800.000
G1 F3600
G1 X116.455 Y118.545 E35.29572
G1 X116.455 Y101.455 E36.18859
G1 X133.545 Y101.455 E37.08145
G1 X133.545 Y118.485 E37.97118
G1 X133.964 Y118.964 F7800.000
G1 F3600
G1 X116.036 Y118.964 E38.90781
G1 X116.036 Y101.036 E39.84445
G1 X133.964 Y101.036 E40.78108
G1 X133.964 Y118.904 E41.71458
G1 X134.383 Y119.383 F7800.000
G1 F3600
G1 X115.617 Y119.383 E42.69498
G1 X115.617 Y100.617 E43.67538
G1 X134.383 Y100.617 E44.65579
G1 X134.383 Y119.323 E45.63305
G1 X134.780 Y119.780 F7800.000
G1 F1800
G1 X115.220 Y119.780 E46.54943
G1 X115.220 Y100.220 E47.46580
G1 X134.780 Y100.220 E48.38217
G1 X134.780 Y119.720 E49.29573
G1 X134.394 Y119.676 F7800.000
G1 X133.289 Y102.037 F7800.000
G1 F1200
G1 X132.963 Y101.711 E49.32020
G1 X132.361 Y101.711 E49.35216
G1 X133.289 Y102.639 E49.42182
G1 X133.289 Y103.241 E49.45378
G1 X131.759 Y101.711 E49.56863
G1 X131.157 Y101.711 E49.60058
G1 X133.289 Y103.843 E49.76062
G1 X133.289 Y104.445 E49.79258
G1 X130.555 Y101.711 E49.99781
G1 X129.953 Y101.711 E50.02977
G1 X133.289 Y105.047 E50.28019
G1 X133.289 Y105.648 E50.31215
G1 X129.352 Y101.711 E50.60776
G1 X128.750 Y101.711 E50.63971
G1 X133.289 Y106.250 E50.98052
G1 X133.289 Y106.852 E51.01247
G1 X128.148 Y101.711 E51.39847
G1 X127.546 Y101.711 E51.43042
G1 X133.289 Y107.454 E51.86161
G1 X133.289 Y108.056 E51.89357
G1 X126.944 Y101.711 E52.36994
G1 X126.342 Y101.711 E52.40190
G1 X133.289 Y108.658 E52.92346
G1 X133.289 Y109.260 E52.95542
G1 X125.740 Y101.711 E53.52218
G1 X125.138 Y101.711 E53.55413
G1 X133.289 Y109.862 E54.16608
G1 X133.289 Y110.464 E54.19803
G1 X124.536 Y101.711 E54.85517
G1 X123.934 Y101.711 E54.88713
G1 X133.289 Y111.066 E55.58946
G1 X133.289 Y111.668 E55.62141
G1 X123.332 Y101.711 E56.36893
G1 X122.730 Y101.711 E56.40089
G1 X133.289 Y112.270 E57.19360
G1 X133.289 Y112.872 E57.22555
G1 X122.128 Y101.711 E58.06345
G1 X121.526 Y101.711 E58.09541
G1 X133.289 Y113.474 E58.97850
G1 X133.289 Y114.076 E59.01045
G1 X120.924 Y101.711 E59.93874
G1 X120.323 Y101.711 E59.97069
G1 X133.289 Y114.677 E60.94416
G1 X133.289 Y115.279 E60.97612
G1 X119.721 Y101.711 E61.99478
G1 X119.119 Y101.711 E62.02674
G1 X133.289 Y115.881 E63.09059
G1 X133.289 Y116.483 E63.12255
G1 X118.517 Y101.711 E64.23159
G1 X117.915 Y101.711 E64.26355
G1 X133.289 Y117.085 E65.41778
G1 X133.289 Y117.687 E65.44974
G1 X117.313 Y101.711 E66.64916
G1 X116.711 Y101.711 E66.68112
G1 X133.289 Y118.289 E67.92573
G1 X132.687 Y118.289 E67.95769
G1 X116.711 Y102.313 E69.15711
G1 X116.711 Y102.915 E69.18907
G1 X132.085 Y118.289 E70.34331
G1 X131.483 Y118.289 E70.37526
G1 X116.711 Y103.517 E71.48431
G1 X116.711 Y104.119 E71.51626
G1 X130.881 Y118.289 E72.58012
G1 X130.279 Y118.289 E72.61207
G1 X116.711 Y104.721 E73.63074
G1 X116.711 Y105.323 E73.66269
G1 X129.677 Y118.289 E74.63617
G1 X129.076 Y118.289 E74.66812
G1 X116.711 Y105.924 E75.59641
G1 X116.711 Y106.526 E75.62836
G1 X128.474 Y118.289 E76.51145
G1 X127.872 Y118.289 E76.54341
G1 X116.711 Y107.128 E77.38131
G1 X116.711 Y107.730 E77.41327
G1 X127.270 Y118.289 E78.20598
G1 X126.668 Y118.289 E78.23793
G1 X116.711 Y108.332 E78.98546
G1 X116.711 Y108.934 E79.01741
G1 X126.066 Y118.289 E79.71974
G1 X125.464 Y118.289 E79.75170
G1 X116.711 Y109.536 E80.40884
G1 X116.711 Y110.138 E80.44079
G1 X124.862 Y118.289 E81.05274
G1 X124.260 Y118.289 E81.08470
G1 X116.711 Y110.740 E81.65146
G1 X116.711 Y111.342 E81.68341
G1 X123.658 Y118.289 E82.20498
G1 X123.056 Y118.289 E82.23694
G1 X116.711 Y111.944 E82.71331
G1 X116.711 Y112.546 E82.74527
G1 X122.454 Y118.289 E83.17646
G1 X121.852 Y118.289 E83.20841
G1 X116.711 Y113.148 E83.59441
G1 X116.711 Y113.750 E83.62636
G1 X121.250 Y118.289 E83.96717
G1 X120.649 Y118.289 E83.99913
G1 X116.711 Y114.351 E84.29474
G1 X116.711 Y114.953 E84.32670
G1 X120.047 Y118.289 E84.57712
G1 X119.445 Y118.289 E84.60908
G1 X116.711 Y115.555 E84.81431
G1 X116.711 Y116.157 E84.84627
G1 X118.843 Y118.289 E85.00631
G1 X118.241 Y118.289 E85.03827
G1 X116.711 Y116.759 E85.15312
G1 X116.711 Y117.361 E85.18507
G1 X117.639 Y118.289 E85.25474
G1 X117.037 Y118.289 E85.28669
G1 X116.711 Y117.963 E85.31117
G1 Z0.950 F7800.000
G1 X133.545 Y118.545 F7800.000
G1 F3600
G1 X116.455 Y118.545 E86.20403
G1 X116.455 Y101.455 E87.09690
G1 X133.545 Y101.455 E87.98976
G1 X133.545 Y118.485 E88.87949
G1 X133.964 Y118.964 F7800.000
G1 F3600
G1 X116.036 Y118.964 E89.81612
G1 X116.036 Y101.036 E90.75276
G1 X133.964 Y101.036 E91.68939
G1 X133.964 Y118.904 E92.62289
G1 X134.383 Y119.383 F7800.000
G1 F3600
G1 X115.617 Y119.383 E93.60329
G1 X115.617 Y100.617 E94.58369
G1 X134.383 Y100.617 E95.56409
G1 X134.383 Y119.323 E96.54136
G1 X134.780 Y119.780 F7800.000
G1 F1800
G1 X115.220 Y119.780 E97.45773
G1 X115.220 Y100.220 E98.37411
G1 X134.780 Y100.220 E99.29048
G1 X134.780 Y119.720 E100.20404
G1 X134.394 Y119.676 F7800.000
G1 X132.963 Y118.289 F7800.000
G1 F1200
G1 X133.289 Y117.963 E100.22851
G1 X133.289 Y117.361 E100.26047
G1 X132.361 Y118.289 E100.33013
G1 X131.759 Y118.289 E100.36208
G1 X133.289 Y116.759 E100.47694
G1 X133.289 Y116.157 E100.50889
G1 X131.157 Y118.289 E100.66893
G1 X130.555 Y118.289 E100.70089
G1 X133.289 Y115.555 E100.90612
G1 X133.289 Y114.953 E100.93808
G1 X129.953 Y118.289 E101.18850
G1 X129.352 Y118.289 E101.22045
G1 X133.289 Y114.352 E101.51607
G1 X133.289 Y113.750 E101.54802
G1 X128.750 Y118.289 E101.88883
G1 X128.148 Y118.289 E101.92078
G1 X133.289 Y113.148 E102.30678
G1 X133.289 Y112.546 E102.33873
G1 X127.546 Y118.289 E102.76992
G1 X126.944 Y118.289 E102.80187
G1 X133.289 Y111.944 E103.27825
G1 X133.289 Y111.342 E103.31021
G1 X126.342 Y118.289 E103.83177
G1 X125.740 Y118.289 E103.86373
G1 X133.289 Y110.740 E104.43049
G1 X133.289 Y110.138 E104.46244
G1 X125.138 Y118.289 E105.07439
G1 X124.536 Y118.289 E105.10634
G1 X133.289 Y109.536 E105.76348
G1 X133.289 Y108.934 E105.79544
G1 X123.934 Y118.289 E106.49777
G1 X123.332 Y118.289 E106.52972
G1 X133.289 Y108.332 E107.27724
G1 X133.289 Y107.730 E107.30920
G1 X122.730 Y118.289 E108.10191
G1 X122.128 Y118.289 E108.13386
G1 X133.289 Y107.128 E108.97176
G1 X133.289 Y106.526 E109.00372
G1 X121.526 Y118.289 E109.88681
G1 X120.924 Y118.289 E109.91876
G1 X133.289 Y105.924 E110.84705
G1 X133.289 Y105.323 E110.87900
G1 X120.323 Y118.289 E111.85247
G1 X119.721 Y118.289 E111.88443
G1 X133.289 Y104.721 E112.90309
G1 X133.289 Y104.119 E112.93505
G1 X119.119 Y118.289 E113.99890
G1 X118.517 Y118.289 E114.03085
G1 X133.289 Y103.517 E115.13990
G1 X133.289 Y102.915 E115.17185
G1 X117.915 Y118.289 E116.32609
G1 X117.313 Y118.289 E116.35804
G1 X133.289 Y102.313 E117.55747
G1 X133.289 Y101.711 E117.58942
G1 X116.711 Y118.289 E118.83404
G1 X116.711 Y117.687 E118.86599
G1 X132.687 Y101.711 E120.06542
G1 X132.085 Y101.711 E120.09738
G1 X116.711 Y117.085 E121.25161
G1 X116.711 Y116.483 E121.28357
G1 X131.483 Y101.711 E122.39261
G1 X130.881 Y101.711 E122.42457
G1 X116.711 Y115.881 E123.48842
G1 X116.711 Y115.279 E123.52038
G1 X130.279 Y101.711 E124.53904
G1 X129.677 Y101.711 E124.57100
G1 X116.711 Y114.677 E125.54447
G1 X116.711 Y114.076 E125.57643
G1 X129.076 Y101.711 E126.50471
G1 X128.474 Y101.711 E126.53667
G1 X116.711 Y113.474 E127.41976
G1 X116.711 Y112.872 E127.45172
G1 X127.872 Y101.711 E128.28962
G1 X127.270 Y101.711 E128.32157
G1 X116.711 Y112.270 E129.11429
G1 X116.711 Y111.668 E129.14624
G1 X126.668 Y101.711 E129.89376
G1 X126.066 Y101.711 E129.92572
G1 X116.711 Y111.066 E130.62805
G1 X116.711 Y110.464 E130.66000
G1 X125.464 Y101.711 E131.31714
G1 X124.862 Y101.711 E131.34910
G1 X116.711 Y109.862 E131.96105
G1 X116.711 Y109.260 E131.99300
G1 X124.260 Y101.711 E132.55976
G1 X123.658 Y101.711 E132.59172
G1 X116.711 Y108.658 E133.11329
G1 X116.711 Y108.056 E133.14524
G1 X123.056 Y101.711 E133.62162
G1 X122.454 Y101.711 E133.65357
G1 X116.711 Y107.454 E134.08476
G1 X116.711 Y106.852 E134.11672
G1 X121.852 Y101.711 E134.50271
G1 X121.250 Y101.711 E134.53467
G1 X116.711 Y106.250 E134.87547
G1 X116.711 Y105.649 E134.90743
G1 X120.649 Y101.711 E135.20305
G1 X120.047 Y101.711 E135.23500
G1 X116.711 Y105.047 E135.48543
G1 X116.711 Y104.445 E135.51738
G1 X119.445 Y101.711 E135.72262
G1 X118.843 Y101.711 E135.75457
G1 X116.711 Y103.843 E135.91461
G1 X116.711 Y103.241 E135.94657
G1 X118.241 Y101.711 E136.06142
G1 X117.639 Y101.711 E136.09338
G1 X116.711 Y102.639 E136.16304
G1 X116.711 Y102.037 E136.19500
G1 X117.037 Y101.711 E136.21947
M106 S147.9
G1 Z1.250 F7800.000
G1 X133.545 Y118.545 F7800.000
G1 F3600
G1 X116.455 Y118.545 E137.11233
G1 X116.455 Y101.455 E138.00520
G1 X133.545 Y101.455 E138.89806
G1 X133.545 Y118.485 E139.78779
G1 X133.964 Y118.964 F7800.000
G1 F3600
G1 X116.036 Y118.964 E140.72443
G1 X116.036 Y101.036 E141.66106
G1 X133.964 Y101.036 E142.59769
G1 X133.964 Y118.904 E143.53119
G1 X134.383 Y119.383 F7800.000
G1 F3600
G1 X115.617 Y119.383 E144.51159
G1 X115.617 Y100.617 E145.49200
G1 X134.383 Y100.617 E146.47240
G1 X134.383 Y119.323 E147.44966
G1 X134.780 Y119.780 F7800.000
G1 F1800
G1 X115.220 Y119.780 E148.36604
G1 X115.220 Y100.220 E149.28241
G1 X134.780 Y100.220 E150.19878
G1 X134.780 Y119.720 E151.11235
G1 X134.394 Y119.676 F7800.000
G1 X133.289 Y102.037 F7800.000
G1 F1200
G1 X132.963 Y101.711 E151.13682
G1 X132.361 Y101.711 E151.16877
G1 X133.289 Y102.639 E151.23843
G1 X133.289 Y103.241 E151.27039
G1 X131.759 Y101.711 E151.38524
G1 X131.157 Y101.711 E151.41719
G1 X133.289 Y103.843 E151.57724
G1 X133.289 Y104.445 E151.60919
G1 X130.555 Y101.711 E151.81443
G1 X129.953 Y101.711 E151.84638
G1 X133.289 Y105.047 E152.09680
G1 X133.289 Y105.648 E152.12876
G1 X129.352 Y101.711 E152.42437
G1 X128.750 Y101.711 E152.45633
G1 X133.289 Y106.250 E152.79713
G1 X133.289 Y106.852 E152.82909
G1 X128.148 Y101.711 E153.21508
G1 X127.546 Y101.711 E153.24704
G1 X133.289 Y107.454 E153.67822
G1 X133.289 Y108.056 E153.71018
G1 X126.944 Y101.711 E154.18655
G1 X126.342 Y101.711 E154.21851
G1 X133.289 Y108.658 E154.74008
G1 X133.289 Y109.260 E154.77203
G1 X125.740 Y101.711 E155.33879
G1 X125.138 Y101.711 E155.37074
G1 X133.289 Y109.862 E155.98269
G1 X133.289 Y110.464 E156.01465
G1 X124.536 Y101.711 E156.67179
G1 X123.934 Y101.711 E156.70374
G1 X133.289 Y111.066 E157.40607
G1 X133.289 Y111.668 E157.43802
G1 X123.332 Y101.711 E158.18554
G1 X122.730 Y101.711 E158.21750
G1 X133.289 Y112.270 E159.01021
G1 X133.289 Y112.872 E159.04216
G1 X122.128 Y101.711 E159.88007
G1 X121.526 Y101.711 E159.91202
G1 X133.289 Y113.474 E160.79511
G1 X133.289 Y114.076 E160.82707
G1 X120.924 Y101.711 E161.75535
G1 X120.323 Y101.711 E161.78730
G1 X133.289 Y114.677 E162.76078
G1 X133.289 Y115.279 E162.79273
G1 X119.721 Y101.711 E163.81140
G1 X119.119 Y101.711 E163.84335
G1 X133.289 Y115.881 E164.90720
G1 X133.289 Y116.483 E164.93916
G1 X118.517 Y101.711 E166.04820
G1 X117.915 Y101.711 E166.08016
G1 X133.289 Y117.085 E167.23439
G1 X133.289 Y117.687 E167.26635
G1 X117.313 Y101.711 E168.46577
G1 X116.711 Y101.711 E168.49773
G1 X133.289 Y118.289 E169.74234
G1 X132.687 Y118.289 E169.77430
G1 X116.711 Y102.313 E170.97373
G1 X116.711 Y102.915 E171.00568
G1 X132.085 Y118.289 E172.15992
G1 X131.483 Y118.289 E172.19187
G1 X116.711 Y103.517 E173.30092
G1 X116.711 Y104.119 E173.33287
G1 X130.881 Y118.289 E174.39673
G1 X130.279 Y118.289 E174.42868
G1 X116.711 Y104.721 E175.44735
G1 X116.711 Y105.323 E175.47930
G1 X129.677 Y118.289 E176.45278
G1 X129.076 Y118.289 E176.48473
G1 X116.711 Y105.924 E177.41302
G1 X116.711 Y106.526 E177.44497
G1 X128.474 Y118.289 E178.32807
G1 X127.872 Y118.289 E178.36002
G1 X116.711 Y107.128 E179.19792
G1 X116.711 Y107.730 E179.22988
G1 X127.270 Y118.289 E180.02259
G1 X126.668 Y118.289 E180.05455
G1 X116.711 Y108.332 E180.80207
G1 X116.711 Y108.934 E180.83402
G1 X126.066 Y118.289 E181.53635
G1 X125.464 Y118.289 E181.56831
