; generated by Slic3r 1.3.0 on 2020-01-20 at 12:15:19

; external perimeters extrusion width = 0.44mm (3.38mm^3/s)
; perimeters extrusion width = 0.48mm (7.54mm^3/s)
; infill extrusion width = 0.48mm (10.05mm^3/s)
; solid infill extrusion width = 0.48mm (2.51mm^3/s)
; top infill extrusion width = 0.48mm (1.88mm^3/s)

M107
M190 S60 ; set bed temperature and wait for it to be reached
M104 S225 ; set temperature
G28 ; home all axes
G1 Z5 F5000 ; lift nozzle

; Filament gcode

M109 S225 ; set temperature and wait for it to be reached
G21 ; set units to millimeters
G90 ; use absolute coordinates
M82 ; use absolute distances for extrusion
G92 E0
G1 Z0.350 F7800.000
G1 E-2.00000 F2400.00000
G92 E0
G1 X28.772 Y17.741 F7800.000
G1 E2.00000 F2400.00000
G1 F1800
G1 X29.915 Y15.753 E2.20854
G1 X31.668 Y14.274 E2.41708
G1 X33.820 Y13.481 E2.62563
G1 X35.000 Y13.375 E2.73334
G1 X215.000 Y13.375 E19.10066
G1 X217.259 Y13.772 E19.30920
G1 X219.247 Y14.915 E19.51774
G1 X220.726 Y16.668 E19.72629
G1 X221.519 Y18.820 E19.93483
G1 X221.625 Y20.000 E20.04254
G1 X221.625 Y200.000 E36.40986
G1 X221.228 Y202.259 E36.61841
G1 X220.085 Y204.247 E36.82695
G1 X218.332 Y205.726 E37.03549
G1 X216.180 Y206.519 E37.24403
G1 X215.000 Y206.625 E37.35174
G1 X35.000 Y206.625 E53.71907
G1 X32.741 Y206.228 E53.92761
G1 X30.753 Y205.085 E54.13615
G1 X29.274 Y203.332 E54.34469
G1 X28.481 Y201.180 E54.55324
G1 X28.375 Y200.000 E54.66094
G1 X28.375 Y20.000 E71.02827
G1 X28.762 Y17.800 E71.23135
G1 F6240
G1 X29.915 Y15.753 E70.37272
G1 F6240
G1 X31.668 Y14.274 E69.53473
G1 F6240
G1 X32.190 Y14.081 E69.33135
G1 E69.23135 F2400.00000
G92 E0
G1 X37.775 Y22.775 F7800.000
G1 E2.00000 F2400.00000
G1 F1800
G1 X212.225 Y22.775 E17.86260
G1 X212.225 Y197.225 E33.72521
G1 X37.775 Y197.225 E49.58781
G1 X37.775 Y22.835 E65.44496
G1 X38.400 Y23.400 F7800.000
G1 F1800
G1 X211.600 Y23.400 E81.19392
G1 X211.600 Y196.600 E96.94289
G1 X38.400 Y196.600 E112.69185
G1 X38.400 Y23.460 E128.43535
G1 X39.025 Y24.025 F7800.000
G1 F1800
G1 X210.975 Y24.025 E144.07068
G1 X210.975 Y195.975 E159.70600
G1 X39.025 Y195.975 E175.34132
G1 X39.025 Y24.085 E190.97118
G1 X39.650 Y24.650 F7800.000
G1 F1800
G1 X210.350 Y24.650 E206.49286
G1 X210.350 Y195.350 E222.01454
G1 X39.650 Y195.350 E237.53622
G1 X39.650 Y24.710 E253.05244
G1 X39.546 Y24.264 F7800.000
G1 F6240
G1 X44.850 Y24.708 E251.15244
G1 E251.05244 F2400.00000
G92 E0
G1 X37.225 Y22.225 F7800.000
G1 E2.00000 F2400.00000
G1 F1800
G1 X212.775 Y22.225 E17.96275
G1 X212.775 Y197.775 E33.92550
G1 X37.225 Y197.775 E49.88824
G1 X37.225 Y22.285 E65.84554
G1 X36.600 Y21.600 F7800.000
G1 F1800
G1 X213.400 Y21.600 E81.92193
G1 X213.400 Y198.400 E97.99832
G1 X36.600 Y198.400 E114.07471
G1 X36.600 Y21.660 E130.14564
G1 X35.975 Y20.975 F7800.000
G1 F1800
G1 X214.025 Y20.975 E146.33567
G1 X214.025 Y199.025 E162.52570
G1 X35.975 Y199.025 E178.71574
G1 X35.975 Y21.035 E194.90031
G1 X35.350 Y20.350 F7800.000
G1 F1800
G1 X214.650 Y20.350 E211.20399
G1 X214.650 Y199.650 E227.50766
G1 X35.350 Y199.650 E243.81133
G1 X35.350 Y20.410 E260.10955
G1 X35.736 Y20.454 F7800.000
M104 S220 ; set temperature
M140 S55 ; set bed temperature
G1 Z0.650 F7800.000
G1 X38.545 Y23.545 F7800.000
G1 F3600
G1 X211.455 Y23.545 E269.14322
G1 X211.455 Y196.455 E278.17688
G1 X38.545 Y196.455 E287.21055
G1 X38.545 Y23.605 E296.24108
G1 X38.964 Y23.964 F7800.000
G1 F3600
G1 X211.036 Y23.964 E305.23098
G1 X211.036 Y196.036 E314.22088
G1 X38.964 Y196.036 E323.21078
G1 X38.964 Y24.024 E332.19754
G1 X39.383 Y24.383 F7800.000
G1 F3600
G1 X210.617 Y24.383 E341.14367
G1 X210.617 Y195.617 E350.08980
G1 X39.383 Y195.617 E359.03593
G1 X39.383 Y24.443 E367.97892
G1 X39.780 Y24.780 F7800.000
G1 F1800
G1 X210.220 Y24.780 E375.96392
G1 X210.220 Y195.220 E383.94892
G1 X39.780 Y195.220 E391.93392
G1 X39.780 Y24.840 E399.91611
G1 X39.676 Y24.394 F7800.000
G1 X36.455 Y21.455 F7800.000
G1 F3600
G1 X213.545 Y21.455 E409.16816
G1 X213.545 Y198.545 E418.42021
G1 X36.455 Y198.545 E427.67226
G1 X36.455 Y21.515 E436.92117
G1 X36.036 Y21.036 F7800.000
G1 F3600
G1 X213.964 Y21.036 E446.21699
G1 X213.964 Y198.964 E455.51281
G1 X36.036 Y198.964 E464.80862
G1 X36.036 Y21.096 E474.10131
G1 X35.617 Y20.617 F7800.000
G1 F3600
G1 X214.383 Y20.617 E483.44089
G1 X214.383 Y199.383 E492.78048
G1 X35.617 Y199.383 E502.12006
G1 X35.617 Y20.677 E511.45652
G1 X35.220 Y20.220 F7800.000
G1 F1800
G1 X214.780 Y20.220 E519.86878
G1 X214.780 Y199.780 E528.28105
G1 X35.220 Y199.780 E536.69331
G1 X35.220 Y20.280 E545.10277
G1 X35.606 Y20.324 F7800.000
G1 X37.037 Y198.289 F7800.000
G1 F1200
G1 X36.711 Y197.963 E545.12684
G1 X36.711 Y197.370 E545.15780
G1 X37.630 Y198.289 E545.22568
G1 X38.222 Y198.289 E545.25663
G1 X36.711 Y196.778 E545.36829
G1 X36.711 Y196.186 E545.39924
G1 X38.814 Y198.289 E545.55468
G1 X39.407 Y198.289 E545.58563
G1 X36.711 Y195.593 E545.78484
G1 X36.711 Y195.001 E545.81580
G1 X38.289 Y196.579 E545.93241
G1 X38.289 Y195.986 E545.96336
G1 X36.711 Y194.408 E546.07997
G1 X36.711 Y193.816 E546.11093
G1 X38.289 Y195.394 E546.22754
G1 X38.289 Y194.801 E546.25849
G1 X36.711 Y193.223 E546.37510
G1 X36.711 Y192.631 E546.40606
G1 X38.289 Y194.209 E546.52267
G1 X38.289 Y193.617 E546.55362
G1 X36.711 Y192.038 E546.67023
G1 X36.711 Y191.446 E546.70119
G1 X38.289 Y193.024 E546.81779
G1 X38.289 Y192.432 E546.84875
G1 X36.711 Y190.854 E546.96536
G1 X36.711 Y190.261 E546.99631
G1 X38.289 Y191.839 E547.11292
G1 X38.289 Y191.247 E547.14388
G1 X36.711 Y189.669 E547.26049
G1 X36.711 Y189.076 E547.29144
G1 X38.289 Y190.654 E547.40805
G1 X38.289 Y190.062 E547.43901
G1 X36.711 Y188.484 E547.55562
G1 X36.711 Y187.891 E547.58657
G1 X38.289 Y189.469 E547.70318
G1 X38.289 Y188.877 E547.73414
G1 X36.711 Y187.299 E547.85075
G1 X36.711 Y186.706 E547.88170
G1 X38.289 Y188.285 E547.99831
G1 X38.289 Y187.692 E548.02927
G1 X36.711 Y186.114 E548.14587
G1 X36.711 Y185.522 E548.17683
G1 X38.289 Y187.100 E548.29344
G1 X38.289 Y186.507 E548.32439
G1 X36.711 Y184.929 E548.44100
G1 X36.711 Y184.337 E548.47196
G1 X38.289 Y185.915 E548.58857
G1 X38.289 Y185.322 E548.61952
G1 X36.711 Y183.744 E548.73613
G1 X36.711 Y183.152 E548.76709
G1 X38.289 Y184.730 E548.88370
G1 X38.289 Y184.137 E548.91465
G1 X36.711 Y182.559 E549.03126
G1 X36.711 Y181.967 E549.06222
G1 X38.289 Y183.545 E549.17883
G1 X38.289 Y182.953 E549.20978
G1 X36.711 Y181.374 E549.32639
G1 X36.711 Y180.782 E549.35734
G1 X38.289 Y182.360 E549.47395
G1 X38.289 Y181.768 E549.50491
G1 X36.711 Y180.190 E549.62152
G1 X36.711 Y179.597 E549.65247
G1 X38.289 Y181.175 E549.76908
G1 X38.289 Y180.583 E549.80004
G1 X36.711 Y179.005 E549.91665
G1 X36.711 Y178.412 E549.94760
G1 X38.289 Y179.990 E550.06421
G1 X38.289 Y179.398 E550.09517
G1 X36.711 Y177.820 E550.21178
G1 X36.711 Y177.227 E550.24273
G1 X38.289 Y178.805 E550.35934
G1 X38.289 Y178.213 E550.39030
G1 X36.711 Y176.635 E550.50690
G1 X36.711 Y176.042 E550.53786
G1 X38.289 Y177.621 E550.65447
G1 X38.289 Y177.028 E550.68542
G1 X36.711 Y175.450 E550.80203
G1 X36.711 Y174.858 E550.83299
G1 X38.289 Y176.436 E550.94960
G1 X38.289 Y175.843 E550.98055
G1 X36.711 Y174.265 E551.09716
G1 X36.711 Y173.673 E551.12812
G1 X38.289 Y175.251 E551.24473
G1 X38.289 Y174.658 E551.27568
G1 X36.711 Y173.080 E551.39229
G1 X36.711 Y172.488 E551.42325
G1 X38.289 Y174.066 E551.53986
G1 X38.289 Y173.473 E551.57081
G1 X36.711 Y171.895 E551.68742
G1 X36.711 Y171.303 E551.71838
G1 X38.289 Y172.881 E551.83498
G1 X38.289 Y172.289 E551.86594
G1 X36.711 Y170.710 E551.98255
G1 X36.711 Y170.118 E552.01350
G1 X38.289 Y171.696 E552.13011
G1 X38.289 Y171.104 E552.16107
G1 X36.711 Y169.526 E552.27768
G1 X36.711 Y168.933 E552.30863
G1 X38.289 Y170.511 E552.42524
G1 X38.289 Y169.919 E552.45620
G1 X36.711 Y168.341 E552.57281
G1 X36.711 Y167.748 E552.60376
G1 X38.289 Y169.326 E552.72037
G1 X38.289 Y168.734 E552.75133
G1 X36.711 Y167.156 E552.86794
G1 X36.711 Y166.563 E552.89889
G1 X38.289 Y168.141 E553.01550
G1 X38.289 Y167.549 E553.04645
G1 X36.711 Y165.971 E553.16306
G1 X36.711 Y165.378 E553.19402
G1 X38.289 Y166.957 E553.31063
G1 X38.289 Y166.364 E553.34158
G1 X36.711 Y164.786 E553.45819
G1 X36.711 Y164.194 E553.48915
G1 X38.289 Y165.772 E553.60576
G1 X38.289 Y165.179 E553.63671
G1 X36.711 Y163.601 E553.75332
G1 X36.711 Y163.009 E553.78428
G1 X38.289 Y164.587 E553.90089
G1 X38.289 Y163.994 E553.93184
G1 X36.711 Y162.416 E554.04845
G1 X36.711 Y161.824 E554.07941
G1 X38.289 Y163.402 E554.19601
G1 X38.289 Y162.809 E554.22697
G1 X36.711 Y161.231 E554.34358
G1 X36.711 Y160.639 E554.37453
G1 X38.289 Y162.217 E554.49114
G1 X38.289 Y161.625 E554.52210
G1 X36.711 Y160.046 E554.63871
G1 X36.711 Y159.454 E554.66966
G1 X38.289 Y161.032 E554.78627
G1 X38.289 Y160.440 E554.81723
G1 X36.711 Y158.862 E554.93384
G1 X36.711 Y158.269 E554.96479
G1 X38.289 Y159.847 E555.08140
G1 X38.289 Y159.255 E555.11236
G1 X36.711 Y157.677 E555.22897
G1 X36.711 Y157.084 E555.25992
G1 X38.289 Y158.662 E555.37653
G1 X38.289 Y158.070 E555.40748
G1 X36.711 Y156.492 E555.52409
G1 X36.711 Y155.899 E555.55505
G1 X38.289 Y157.477 E555.67166
G1 X38.289 Y156.885 E555.70261
G1 X36.711 Y155.307 E555.81922
G1 X36.711 Y154.714 E555.85018
G1 X38.289 Y156.293 E555.96679
G1 X38.289 Y155.700 E555.99774
G1 X36.711 Y154.122 E556.11435
G1 X36.711 Y153.530 E556.14531
G1 X38.289 Y155.108 E556.26192
G1 X38.289 Y154.515 E556.29287
G1 X36.711 Y152.937 E556.40948
G1 X36.711 Y152.345 E556.44044
G1 X38.289 Y153.923 E556.55704
G1 X38.289 Y153.330 E556.58800
G1 X36.711 Y151.752 E556.70461
G1 X36.711 Y151.160 E556.73556
G1 X38.289 Y152.738 E556.85217
G1 X38.289 Y152.145 E556.88313
G1 X36.711 Y150.567 E556.99974
G1 X36.711 Y149.975 E557.03069
G1 X38.289 Y151.553 E557.14730
G1 X38.289 Y150.961 E557.17826
G1 X36.711 Y149.382 E557.29487
G1 X36.711 Y148.790 E557.32582
G1 X38.289 Y150.368 E557.44243
G1 X38.289 Y149.776 E557.47339
G1 X36.711 Y148.198 E557.59000
G1 X36.711 Y147.605 E557.62095
G1 X38.289 Y149.183 E557.73756
G1 X38.289 Y148.591 E557.76852
G1 X36.711 Y147.013 E557.88512
G1 X36.711 Y146.420 E557.91608
G1 X38.289 Y147.998 E558.03269
G1 X38.289 Y147.406 E558.06364
G1 X36.711 Y145.828 E558.18025
G1 X36.711 Y145.235 E558.21121
G1 X38.289 Y146.813 E558.32782
G1 X38.289 Y146.221 E558.35877
G1 X36.711 Y144.643 E558.47538
G1 X36.711 Y144.050 E558.50634
G1 X38.289 Y145.629 E558.62295
G1 X38.289 Y145.036 E558.65390
G1 X36.711 Y143.458 E558.77051
G1 X36.711 Y142.866 E558.80147
G1 X38.289 Y144.444 E558.91808
G1 X38.289 Y143.851 E558.94903
G1 X36.711 Y142.273 E559.06564
G1 X36.711 Y141.681 E559.09660
G1 X38.289 Y143.259 E559.21320
G1 X38.289 Y142.666 E559.24416
G1 X36.711 Y141.088 E559.36077
G1 X36.711 Y140.496 E559.39172
G1 X38.289 Y142.074 E559.50833
G1 X38.289 Y141.481 E559.53929
G1 X36.711 Y139.903 E559.65590
G1 X36.711 Y139.311 E559.68685
G1 X38.289 Y140.889 E559.80346
G1 X38.289 Y140.297 E559.83442
G1 X36.711 Y138.718 E559.95103
G1 X36.711 Y138.126 E559.98198
G1 X38.289 Y139.704 E560.09859
G1 X38.289 Y139.112 E560.12955
G1 X36.711 Y137.534 E560.24615
G1 X36.711 Y136.941 E560.27711
G1 X38.289 Y138.519 E560.39372
G1 X38.289 Y137.927 E560.42467
G1 X36.711 Y136.349 E560.54128
G1 X36.711 Y135.756 E560.57224
G1 X38.289 Y137.334 E560.68885
G1 X38.289 Y136.742 E560.71980
G1 X36.711 Y135.164 E560.83641
G1 X36.711 Y134.571 E560.86737
G1 X38.289 Y136.149 E560.98398
G1 X38.289 Y135.557 E561.01493
G1 X36.711 Y133.979 E561.13154
G1 X36.711 Y133.386 E561.16250
G1 X38.289 Y134.965 E561.27911
G1 X38.289 Y134.372 E561.31006
G1 X36.711 Y132.794 E561.42667
G1 X36.711 Y132.202 E561.45763
G1 X38.289 Y133.780 E561.57423
G1 X38.289 Y133.187 E561.60519
G1 X36.711 Y131.609 E561.72180
G1 X36.711 Y131.017 E561.75275
G1 X38.289 Y132.595 E561.86936
G1 X38.289 Y132.002 E561.90032
G1 X36.711 Y130.424 E562.01693
G1 X36.711 Y129.832 E562.04788
G1 X38.289 Y131.410 E562.16449
G1 X38.289 Y130.817 E562.19545
G1 X36.711 Y129.239 E562.31206
G1 X36.711 Y128.647 E562.34301
G1 X38.289 Y130.225 E562.45962
G1 X38.289 Y129.633 E562.49058
G1 X36.711 Y128.055 E562.60719
G1 X36.711 Y127.462 E562.63814
G1 X38.289 Y129.040 E562.75475
G1 X38.289 Y128.448 E562.78571
G1 X36.711 Y126.870 E562.90231
G1 X36.711 Y126.277 E562.93327
G1 X38.289 Y127.855 E563.04988
G1 X38.289 Y127.263 E563.08083
G1 X36.711 Y125.685 E563.19744
G1 X36.711 Y125.092 E563.22840
G1 X38.289 Y126.670 E563.34501
G1 X38.289 Y126.078 E563.37596
G1 X36.711 Y124.500 E563.49257
G1 X36.711 Y123.907 E563.52353
G1 X38.289 Y125.485 E563.64014
G1 X38.289 Y124.893 E563.67109
G1 X36.711 Y123.315 E563.78770
G1 X36.711 Y122.723 E563.81866
G1 X38.289 Y124.301 E563.93527
G1 X38.289 Y123.708 E563.96622
G1 X36.711 Y122.130 E564.08283
G1 X36.711 Y121.538 E564.11379
G1 X38.289 Y123.116 E564.23039
G1 X38.289 Y122.523 E564.26135
G1 X36.711 Y120.945 E564.37796
G1 X36.711 Y120.353 E564.40891
G1 X38.289 Y121.931 E564.52552
G1 X38.289 Y121.338 E564.55648
G1 X36.711 Y119.760 E564.67309
G1 X36.711 Y119.168 E564.70404
G1 X38.289 Y120.746 E564.82065
G1 X38.289 Y120.153 E564.85161
G1 X36.711 Y118.575 E564.96822
G1 X36.711 Y117.983 E564.99917
G1 X38.289 Y119.561 E565.11578
G1 X38.289 Y118.969 E565.14674
G1 X36.711 Y117.391 E565.26335
G1 X36.711 Y116.798 E565.29430
G1 X38.289 Y118.376 E565.41091
G1 X38.289 Y117.784 E565.44187
G1 X36.711 Y116.206 E565.55847
G1 X36.711 Y115.613 E565.58943
G1 X38.289 Y117.191 E565.70604
G1 X38.289 Y116.599 E565.73699
G1 X36.711 Y115.021 E565.85360
G1 X36.711 Y114.428 E565.88456
G1 X38.289 Y116.006 E566.00117
G1 X38.289 Y115.414 E566.03212
G1 X36.711 Y113.836 E566.14873
G1 X36.711 Y113.243 E566.17969
G1 X38.289 Y114.821 E566.29630
G1 X38.289 Y114.229 E566.32725
G1 X36.711 Y112.651 E566.44386
G1 X36.711 Y112.059 E566.47482
G1 X38.289 Y113.637 E566.59143
G1 X38.289 Y113.044 E566.62238
G1 X36.711 Y111.466 E566.73899
G1 X36.711 Y110.874 E566.76995
G1 X38.289 Y112.452 E566.88655
G1 X38.289 Y111.859 E566.91751
G1 X36.711 Y110.281 E567.03412
G1 X36.711 Y109.689 E567.06507
G1 X38.289 Y111.267 E567.18168
G1 X38.289 Y110.674 E567.21264
G1 X36.711 Y109.096 E567.32925
G1 X36.711 Y108.504 E567.36020
G1 X38.289 Y110.082 E567.47681
G1 X38.289 Y109.489 E567.50777
G1 X36.711 Y107.911 E567.62438
G1 X36.711 Y107.319 E567.65533
G1 X38.289 Y108.897 E567.77194
G1 X38.289 Y108.305 E567.80290
G1 X36.711 Y106.727 E567.91950
G1 X36.711 Y106.134 E567.95046
G1 X38.289 Y107.712 E568.06707
G1 X38.289 Y107.120 E568.09802
G1 X36.711 Y105.542 E568.21463
G1 X36.711 Y104.949 E568.24559
G1 X38.289 Y106.527 E568.36220
G1 X38.289 Y105.935 E568.39315
G1 X36.711 Y104.357 E568.50976
G1 X36.711 Y103.764 E568.54072
G1 X38.289 Y105.342 E568.65733
G1 X38.289 Y104.750 E568.68828
G1 X36.711 Y103.172 E568.80489
G1 X36.711 Y102.579 E568.83585
G1 X38.289 Y104.158 E568.95246
G1 X38.289 Y103.565 E568.98341
G1 X36.711 Y101.987 E569.10002
G1 X36.711 Y101.395 E569.13098
G1 X38.289 Y102.973 E569.24758
G1 X38.289 Y102.380 E569.27854
G1 X36.711 Y100.802 E569.39515
G1 X36.711 Y100.210 E569.42610
G1 X38.289 Y101.788 E569.54271
G1 X38.289 Y101.195 E569.57367
G1 X36.711 Y99.617 E569.69028
G1 X36.711 Y99.025 E569.72123
G1 X38.289 Y100.603 E569.83784
G1 X38.289 Y100.010 E569.86880
G1 X36.711 Y98.432 E569.98541
G1 X36.711 Y97.840 E570.01636
G1 X38.289 Y99.418 E570.13297
G1 X38.289 Y98.826 E570.16393
G1 X36.711 Y97.247 E570.28054
G1 X36.711 Y96.655 E570.31149
G1 X38.289 Y98.233 E570.42810
G1 X38.289 Y97.641 E570.45905
G1 X36.711 Y96.063 E570.57566
G1 X36.711 Y95.470 E570.60662
G1 X38.289 Y97.048 E570.72323
G1 X38.289 Y96.456 E570.75418
G1 X36.711 Y94.878 E570.87079
G1 X36.711 Y94.285 E570.90175
G1 X38.289 Y95.863 E571.01836
G1 X38.289 Y95.271 E571.04931
G1 X36.711 Y93.693 E571.16592
G1 X36.711 Y93.100 E571.19688
G1 X38.289 Y94.678 E571.31349
G1 X38.289 Y94.086 E571.34444
G1 X36.711 Y92.508 E571.46105
G1 X36.711 Y91.915 E571.49201
G1 X38.289 Y93.494 E571.60861
G1 X38.289 Y92.901 E571.63957
G1 X36.711 Y91.323 E571.75618
G1 X36.711 Y90.731 E571.78713
G1 X38.289 Y92.309 E571.90374
G1 X38.289 Y91.716 E571.93470
G1 X36.711 Y90.138 E572.05131
G1 X36.711 Y89.546 E572.08226
G1 X38.289 Y91.124 E572.19887
G1 X38.289 Y90.531 E572.22983
G1 X36.711 Y88.953 E572.34644
G1 X36.711 Y88.361 E572.37739
